!!!OTL: 1436. Jaeger und Jungfrau.
!!!ARE: Europa, Mitteleuropa, Deutschland, Rheingau, Lorchgau; Hessen,
!!    Dill - Kreis, Taunus, Waldeck
!!!SCT: E1436A
!!!TXL: @@DE
!!!YEM: Copyright 1995, estate of Helmut Schaffrath.
**kern	**text
*ICvox	*
*M4/4	*
*met(c)	*
*k[b-e-a-]	*
*E-:	*
!LO:TX:a:t=Var.	!
{8e-L	Es
8gJ	.
=1	=1
4.b-	wollt
8ee-	ein
8b-L	Jä-
8a-J	.
8gL	-ger
8fJ	.
=2	=2
(4e-	ja-
4b-/)	.
4g}	-gen,
{4b-	wollt
=3	=3
8cc	ja-
8cc	-gen
8b-	auf
8b-	der
8a-	kö-
8a-	-nig-
8gL	-li-
8b-J	-chen
=4	=4
2f	Heid.
4r}	.
{8b-	Was
8b-	be-
=5	=5
4b-	-geg-
4b-	-net
4b-	ihm
4b-	all-
=6	=6
(4g	-da?
4b-/	.
4e-)}	.
{8e-	ei-
8e-	-ne
=7	=7
8cc	Da-
8cc	-me,
8cc	die
8cc	war
4cc	ſchneeweiß
8ee-	.
8cc	ge-
=8	=8
(4b-	-kleidt,
4ee-	.
4g)}	.
{8g	ei-
8g	-ne
=9	=9
8f	Da-
8f	-me,
8cc	die
8cc	war
4b-	ſchnee-
8a-	-weiß
8b-/	ge-
=10	=10
2g	-kleidt.
4r}	.
==	==
!!!AGN: Staende -, Jaeger - Lied
!!!ONB: ESAC (Essen Associative Code) Database: ERK3
!!!AMT: simple quadruple
!!!AIN: vox
!!!EED: Helmut Schaffrath
!!!EEV: 1.0
!!!GTL: Staendelieder (Berufslieder). 2. Jaegerlieder und Jaegerballaden.
!!!URL-scan: https://rosdok.uni-rostock.de/mcrviewer/recordIdentifier/rosdok_ppn745177999/iview2/phys_0301.iview2?x=-128.77276441889285&y=1711.873758153757&scale=0.5870222003877487&rotation=0&layout=singlePageLayout
!!!ENC: Anna Maria Matuszewska
!!!EEV: 2024/12/31
*-	*-
